!!!COM: Scriabin, Alexander
!!!OTL@@FR: Étude en mi bémol majeur
!!!OTL@@EN: Etude in Eb Major
!!!OPR@@FR: 8 Études
!!!OPR@@EN: 8 Etudes
!!!OPS: 42
!!!ONM: 8
!!!ODT: 1903
!!!AGN: Etude
**kern	**kern	**dynam
*staff2	*staff1	*staff1/2
*Ipiano	*Ipiano	*
*clefF4	*clefG2	*
*k[b-e-a-]	*k[b-e-a-]	*
*E-:	*E-:	*
*M4/4	*M4/4	*
*met(c)	*met(c)	*
=1	=1	=1
10.r	10.r	.
[10F	20cLL	.
.	20e-JJ	.
10.F]	20a-LL	.
.	20e-	.
.	20cJJ	.
10r	10r	.
12r	10.r	.
12r	.	.
.	20e-LL	.
12cL	.	.
.	20a-	.
12F	20ee-	.
.	20a-	.
12BB-J	.	.
.	20e-JJ	.
.	40cLLL	.
12A-L	.	.
.	40e-	.
.	40a-	.
.	40ccJ	.
=2	=2	=2
12BB-	20gg	.
.	20cc	.
12EE-J	.	.
.	20a-JJ	.
.	20ee-LL	.
12FL 12c	.	.
.	20g	.
12BB-	20dd	.
.	20a-	.
12EE-J	.	.
.	20e-JJ	.
.	20ccLL	.
12A-L	.	.
.	20d	.
12BB-	20b-	.
.	20e-	.
12EE-J	.	.
.	20cJJ	.
.	20a-LL	.
12FL	.	.
.	20Bn	.
12BB-	20f	.
.	20c	.
12EE-J	.	.
.	20A-JJ	.
.	40e-LLL	.
12FL 12c	.	.
.	40a-	.
.	40cc	.
.	40ee-J	.
=3	=3	=3
12BB-	20bb-	.
.	20ee-	.
12EE-J	.	.
.	20ccJJ	.
.	20ggLL	.
12A-L 12e-	.	.
.	20bn	.
12BB-	20ff	.
.	20cc	.
12EE-J	.	.
.	20a-JJ	.
.	20ee-LL	.
12FL 12c	.	.
.	20g	.
12BB-	20dd	.
.	20a-	.
12EE-J	.	.
.	20e-JJ	.
.	20ccLL	.
12FL	.	.
.	20d	.
12BB-	20a-	.
.	20e-	.
12EE-J	.	.
.	20cJJ	.
.	20ccLL	.
[12BB-L 12G	.	.
.	20en	.
=4	=4	=4
*^	*	*
4rEE	12BB-] 12A-	20b-	.
.	.	20f	.
.	12EE-J	.	.
.	.	20dJJ	.
.	.	20ggLL	.
.	[12B-L 12g	.	.
.	.	20cc#X	.
4rEE	12B-J] 12a-	20ff	.
.	.	20dd	.
.	12rc	.	.
.	.	20b-JJ	.
.	.	20a-LL	.
.	12C-XL 12A-	.	.
.	.	20d	.
4rEE	12An	20g	.
.	.	20e-	.
.	12EE-J	.	.
.	.	20c-XJJ	.
.	.	20ffLL	.
.	[12A [12e-	.	.
.	.	20cc-X	.
12rEE	12AL_ 12e-_	20ee-	.
.	.	20cc-	.
12rEE	12AJ] 12e-]	.	.
.	.	20gJJ	.
.	.	20ddLL	.
12DL	[12B-	.	.
.	.	20f#X	.
=5	=5	=5	=5
12E-	6B-]	20dd	.
.	.	20g	.
12FFJ	.	.	.
.	.	20e-JJ	.
.	.	20ddLL	.
12DL	[12An	.	.
.	.	20fn	.
12E-	6A]	20dd	.
.	.	20g-X	.
12FFJ	.	.	.
.	.	20e-JJ	.
.	.	20b-LL	.
12C#XL	[12B-	.	.
.	.	20en	.
12D	6B-]	20b-	.
.	.	20f	.
12BB-J	.	.	.
.	.	20dJJ	.
.	.	20B-LL	.
12rEE	12rc	.	.
.	.	20d	.
4rEE	6rc	20f	.
.	.	20b-	.
.	.	20ddJJ	.
.	.	40e-XLLL	.
.	12BB-L	.	.
.	.	40a-	.
.	.	40cc	.
.	.	40ee-J	.
*v	*v	*	*
=6	=6	=6
12F	20bb-	.
.	20ee-	.
12A-J	.	.
.	20ccJJ	.
.	20aa-LL	.
12e-L	.	.
.	20bn	.
12a-J	20gg	.
.	20cc	.
12r	.	.
.	20a-JJ	.
.	20ffLL	.
12r	.	.
.	20g	.
4r	20ee-	.
.	20a-	.
.	20fJJ	.
.	20ccLL	.
.	20d	.
12r	20b-X	.
.	20e-	.
12r	.	.
.	20cJJ	.
.	20a-LL	.
12EnL	.	.
.	20d	.
=7	=7	=7
12F	20a-	.
.	20e-	.
12BB-J	.	.
.	20cJJ	.
.	20fLL	.
12GL	.	.
.	20c#X	.
12A-	20f	.
.	20d	.
12BB-J	.	.
.	20B-JJ	.
.	20a-LL	.
12EnL	.	.
.	20d	.
12F	20a-	.
.	20e-	.
12BB-J	.	.
.	20cnJJ	.
.	20fLL	.
12GL	.	.
.	20c#X	.
12A-	20f	.
.	20d	.
12BB-J	.	.
.	20B-JJ	.
.	40a-LLL	.
12BB-L	.	.
.	40ccn	.
.	40ee-	.
.	40aa-J	.
=8	=8	=8
*^	*	*
4rEE	12F	20ddd	.
.	.	20aa-	.
.	12e-J	.	.
.	.	20ee-JJ	.
.	.	20cccLL	.
*clefG2	*	*	*
.	12a-L	.	.
.	.	20dd	.
4rc	12ccJ	20bb-	.
.	.	20ee-	.
.	12raa	.	.
.	.	20ccJJ	.
.	.	20aa-LL	.
.	12raa	.	.
.	.	20bn	.
*clefF4	*	*	*
4rEE	4rc	20gg	.
.	.	20cc	.
.	.	20a-JJ	.
.	.	20ffLL	.
.	.	20g	.
12rEE	12rc	20ee-	.
.	.	20a-	.
12rEE	12rc	.	.
.	.	20fJJ	.
.	.	20ccLL	.
12EnL	[12c	.	.
.	.	20g	.
=9	=9	=9	=9
12F	6c]	20cc	.
.	.	20a-	.
12BB-J	.	.	.
.	.	20e-JJ	.
.	.	20b-LL	.
12GL	[12d	.	.
.	.	20en	.
12A-	6d]	20b-	.
.	.	20f	.
12BB-J	.	.	.
.	.	20dJJ	.
.	.	20ccLL	.
12EnL	[12c	.	.
.	.	20g	.
12F	6c]	20cc	.
.	.	20a-	.
12BB-J	.	.	.
.	.	20e-XJJ	.
.	.	20ee-LL	.
12EL	[12c	.	.
.	.	20g	.
12F	6c]	20ee-	.
.	.	20a-	.
12BB-J	.	.	.
.	.	20e-JJ	.
.	.	40cLLL	.
12A-L	12rc	.	.
.	.	40e-	.
.	.	40a-	.
.	.	40ccJ	.
=10	=10	=10	=10
12BB-	1ryy	20gg	.
.	.	20cc	.
12EE-J	.	.	.
.	.	20a-JJ	.
.	.	20ee-LL	.
12FL 12c	.	.	.
.	.	20g	.
12BB-	.	20dd	.
.	.	20a-	.
12EE-J	.	.	.
.	.	20e-JJ	.
.	.	20ccLL	.
12A-L	.	.	.
.	.	20d	.
12BB-	.	20b-	.
.	.	20e-	.
12EE-J	.	.	.
.	.	20cJJ	.
.	.	20a-LL	.
12FL	.	.	.
.	.	20Bn	.
12BB-	.	20f	.
.	.	20c	.
12EE-J	.	.	.
.	.	20A-JJ	.
.	.	40e-LLL	.
12FL 12c	.	.	.
.	.	40a-	.
.	.	40cc	.
.	.	40ee-J	.
=11	=11	=11	=11
12BB-	4rc	20bb-	.
.	.	20ee-	.
12EE-J	.	.	.
.	.	20ccJJ	.
.	.	20ggLL	.
12A-L 12e-	.	.	.
.	.	20bn	.
12BB-	4rc	20ff	.
.	.	20cc	.
12EE-J	.	.	.
.	.	20a-JJ	.
.	.	20ee-LL	.
12FL 12c	.	.	.
.	.	20g	.
12BB-	4rc	20dd	.
.	.	20a-	.
12EE-J	.	.	.
.	.	20e-JJ	.
.	.	20ccLL	.
12FL	.	.	.
.	.	20d	.
12BB-	12rc	20a-	.
.	.	20e-	.
12EE-J	12rc	.	.
.	.	20cJJ	.
.	.	20ccLL	.
12F#XL	[12E-	.	.
.	.	20d	.
=12	=12	=12	=12
12G	6E-]	20b-	.
.	.	20e-	.
12EE-J	.	.	.
.	.	20d-XJJ	.
.	.	20ffLL	.
12cL	12rc	.	.
.	.	20an	.
12d-X	12rc	20ee-	.
.	.	20b-	.
12E-J	12rc	.	.
.	.	20gJJ	.
.	.	20dd-XLL	.
12GL	[12E-	.	.
.	.	20f	.
12A-	6E-]	20cc	.
.	.	20e-	.
12AA-J	.	.	.
.	.	20cJJ	.
.	.	20bb-XLL	.
12BnL	[12f	.	.
.	.	20ddn	.
12c	6f]	20aa-	.
.	.	20ee-	.
12FJ	.	.	.
.	.	20a-XJJ	.
.	.	20ggLL	.
12GL	[12e-	.	.
.	.	20bn	.
=13	=13	=13	=13
12A-	6e-]	20gg	.
.	.	20cc	.
12BB-J	.	.	.
.	.	20a-JJ	.
.	.	20ggLL	.
12GL	[12d	.	.
.	.	20b-	.
12A-	6d]	20gg	.
.	.	20cc-X	.
12BB-J	.	.	.
.	.	20a-JJ	.
.	.	20ee-LL	.
12F#XL	[12e-	.	.
.	.	20an	.
12G	6e-]	20ee-	.
.	.	20b-	.
12E-J	.	.	.
.	.	20gJJ	.
.	.	20ee-LL	.
12rEE	12rc	.	.
.	.	20b-	.
6rEE	12rc	20g	.
.	.	20e-	.
.	12rc	.	.
.	.	20B-JJ	.
.	.	20ccnLL	.
12F#XL	[12E-	.	.
.	.	20d	.
=14	=14	=14	=14
12G	6E-]	20b-	.
.	.	20e-	.
12EE-J	.	.	.
.	.	20d-XJJ	.
.	.	20ffLL	.
12cL	12rc	.	.
.	.	20an	.
12d-X	12rc	20ee-	.
.	.	20b-	.
12E-J	12rc	.	.
.	.	20gJJ	.
.	.	20dd-XLL	.
12GL	[12E-	.	.
.	.	20f	.
12A-	6E-]	20cc	.
.	.	20e-	.
12AA-J	.	.	.
.	.	20cJJ	.
.	.	20bb-XLL	.
12BnL	[12f	.	.
.	.	20ddn	.
12c	6f]	20aa-	.
.	.	20ee-	.
12FJ	.	.	.
.	.	20a-XJJ	.
.	.	20ggLL	.
12GL	[12e-	.	.
.	.	20bn	.
=15	=15	=15	=15
12A-	6e-]	20gg	.
.	.	20cc	.
12BB-J	.	.	.
.	.	20a-JJ	.
.	.	20ggLL	.
12GL	[12d	.	.
.	.	20b-	.
12A-	6d]	20gg	.
.	.	20cc-X	.
12BB-J	.	.	.
.	.	20a-JJ	.
.	.	20ee-LL	.
12F#XL	[12e-	.	.
.	.	20an	.
12G	6e-]	20ee-	.
.	.	20b-	.
12E-J	.	.	.
.	.	20gJJ	.
.	.	20ee-LL	.
12rEE	12rc	.	.
.	.	20b-	.
4rEE	12rc	20g	.
.	.	20e-	.
.	12rc	.	.
.	.	20B-JJ	.
.	.	20gLL	.
.	[12BBB- [12BB-	.	.
.	.	20Bn	.
*v	*v	*	*
=16	=16	=16
6BBB-] 6BB-]	20g	.
.	20c	.
.	20A-JJ	.
.	20gLL	.
[12BBB- [12BB-	.	.
.	20d-X	.
6BBB-] 6BB-]	20g	.
.	20dn	.
.	20A-JJ	.
.	20gLL	.
[12EE- [12E-	.	.
.	20d	.
6EE-] 6E-]	20g	.
.	20e-	.
.	20GJJ	.
.	20gLL	.
[12CC-X [12C-X	.	.
.	20d	.
6CC-] 6C-]	20g	.
.	20e-	.
.	20AnJJ	.
.	20gLL	.
[12EE- [12E-	.	.
.	20d	.
=17	=17	=17
10.EE-] 10.E-]	20g	.
.	20e-	.
.	20B-JJ	.
10r	10r	.
10.r	10.r	.
[10EE- [10E-	20gLL	.
.	20d	.
10.EE-] 10.E-]	20g	.
.	20e-	.
.	20B-JJ	.
10r	10r	.
4r	4r	.
=18	=18	=18
4r	4r	.
2EE- 2E-	2G 2B- 2e-	.
4EE- 4E-	4G 4B- 4e-	.
*	*clefF4	*
=19||	=19||	=19||
*k[f#c#g#d#a#]	*k[f#c#g#d#a#]	*
*	*^	*
*	*	*^	*
2GGGn 2GGn	2Fn\	2B	2d#	.
4GGG#X 4GG#X	4E\	2B	4.e	.
4CCC# 4CC#	4G#\	.	.	.
.	.	.	8e#X	.
=20	=20	=20	=20	=20
4CCC##X 4CC##X	8.Gn\L	4B	8.e#XL	.
.	16F#\Jk	.	16f#Jk	.
2DDD# 2DD#	2F#\	2B	2f# 2a#	.
4GGG# 4GG#	4F#\	4B	4d#	.
=21	=21	=21	=21	=21
1CCC# 1CC#	2E\	2B	2g#	.
.	2G#\	2B	4.f#	.
.	.	.	8e	.
=22	=22	=22	=22	=22
2EEE 2EE	2Gn\	2B	2d#	.
2GGGn 2GGn	2E\	2A#	6B#X	.
.	.	.	6c#	.
.	.	.	6c##X	.
=23	=23	=23	=23	=23
2GGGn 2GGn	2Fn\	2B	2d#	.
4GGG#X 4GG#X	4E\	2B	4.e	.
4CCC# 4CC#	4G#\	.	.	.
.	.	.	8e#X	.
=24	=24	=24	=24	=24
4CCC##X 4CC##X	8.Gn\L	4B	8.e#XL	.
.	16F#\Jk	.	16f#Jk	.
2DDD# 2DD#	2F#\	2B	2f# 2a#	.
4GGG# 4GG#	4F#\	4B	4d#	.
=25	=25	=25	=25	=25
[2CCC# [2CC#	[2E#X\	[2B	2a#	.
4.CCC#] 4.CC#]	4.E#\]	4.B]	4.g#	.
8FFF# 8FF#	8F#\	8A#	8f#	.
=26	=26	=26	=26	=26
1FFF# 1FF#	1F#	1A#	4f#	.
.	.	.	2c#	.
.	.	.	4d#	.
=27	=27	=27	=27	=27
1CC# 1GG#	1E	1B	4.e	.
.	.	.	8d#	.
.	.	.	8g#	.
.	.	.	4d#	.
.	.	.	8d#	.
=28	=28	=28	=28	=28
1FFF# 1FF#	1E	1A#	4d#	.
.	.	.	4c#	.
.	.	.	4B#X	.
.	.	.	4c#	.
=29	=29	=29	=29	=29
1CC# 1GG#	1E	1B	4.e	.
.	.	.	8d#	.
.	.	.	8b	.
.	.	.	4d#	.
.	.	.	8d#	.
=30	=30	=30	=30	=30
1FF#	1E	1A#	4d#	.
.	.	.	4c#	.
.	.	.	4B	.
.	.	.	4c#	.
=31	=31	=31	=31	=31
4BB	2Fn\	4Gn	2d#	.
4GGn	.	4B	.	.
4GG#X	4E\	2B	4.e	.
4CC#	4G#X\	.	.	.
.	.	.	8e#X	.
=32	=32	=32	=32	=32
4CC##X	8.Gn\L	4B	8.e#XL	.
.	16F#\Jk	.	16f#Jk	.
2DD#	2F#\	2B	2f# 2a#	.
4D#	4r	4B	4f#	.
*	*	*v	*v	*
*	*v	*v	*
*	*clefG2	*
=33||	=33||	=33||
*k[b-e-a-]	*k[b-e-a-]	*
*	*^	*
2G-X	2c-X 2e-	2b-	.
2F	2cn 2e-	4.a-	.
.	.	8an	.
=34	=34	=34	=34
4BB-	4d 4f	8ccL	.
.	.	8b-J	.
2F	2c 2e-	2a-X	.
16qqc/LL	.	16qqe-/LL	.
16qqF/JJ	.	16qqa-/JJ	.
4BB-	4rc	20ee-LL	.
.	.	20a-	.
.	.	20e-JJ	.
.	.	40cLLL	.
.	.	40e-	.
.	.	40a-	.
.	.	40ccJ	.
*	*v	*v	*
=35	=35	=35
12BB-L	20gg	.
.	20cc	.
12EE-J	.	.
.	20a-JJ	.
.	20ee-LL	.
12FL 12c	.	.
.	20g	.
12BB-	20dd	.
.	20a-	.
12EE-J	.	.
.	20e-JJ	.
.	20ccLL	.
12A-L	.	.
.	20d	.
12BB-	20b-	.
.	20e-	.
12EE-J	.	.
.	20cJJ	.
.	20a-LL	.
12FL	.	.
.	20Bn	.
12BB-	20f	.
.	20c	.
12EE-J	.	.
.	20A-JJ	.
.	40e-LLL	.
12FL 12c	.	.
.	40a-	.
.	40cc	.
.	40ee-J	.
=36	=36	=36
12BB-	20bb-	.
.	20ee-	.
12EE-J	.	.
.	20ccJJ	.
.	20ggLL	.
12A-L 12e-	.	.
.	20bn	.
12BB-	20ff	.
.	20cc	.
12EE-J	.	.
.	20a-JJ	.
.	20ee-LL	.
12FL 12c	.	.
.	20g	.
12BB-	20dd	.
.	20a-	.
12EE-J	.	.
.	20e-JJ	.
.	20ccLL	.
12FL	.	.
.	20d	.
12BB-	20a-	.
.	20e-	.
12EE-J	.	.
.	20cJJ	.
.	20ccLL	.
[12BB-L 12G	.	.
.	20en	.
=37	=37	=37
*^	*	*
4rEE	12BB-] 12A-	20b-	.
.	.	20f	.
.	12EE-J	.	.
.	.	20dJJ	.
.	.	20ggLL	.
.	[12B-L 12g	.	.
.	.	20cc#X	.
4rEE	12B-J] 12a-	20ff	.
.	.	20dd	.
.	12rc	.	.
.	.	20b-JJ	.
.	.	20a-LL	.
.	12C-XL 12A-	.	.
.	.	20d	.
4rEE	12An	20g	.
.	.	20e-	.
.	12EE-J	.	.
.	.	20c-XJJ	.
.	.	20ffLL	.
.	[12A [12e-	.	.
.	.	20cc-X	.
12rEE	12AL_ 12e-_	20ee-	.
.	.	20cc-	.
12rEE	12AJ] 12e-]	.	.
.	.	20gJJ	.
.	.	20ddLL	.
12DL	[12B-	.	.
.	.	20f#X	.
=38	=38	=38	=38
12E-	6B-]	20dd	.
.	.	20g	.
12FFJ	.	.	.
.	.	20e-JJ	.
.	.	20ddLL	.
12DL	[12An	.	.
.	.	20fn	.
12E-	6A]	20dd	.
.	.	20g-X	.
12FFJ	.	.	.
.	.	20e-JJ	.
.	.	20b-LL	.
12C#XL	[12B-	.	.
.	.	20en	.
12D	6B-]	20b-	.
.	.	20f	.
12BB-J	.	.	.
.	.	20dJJ	.
.	.	20B-LL	.
12rEE	12rc	.	.
.	.	20d	.
4rEE	6rc	20f	.
.	.	20b-	.
.	.	20ddJJ	.
.	.	40e-XLLL	.
.	12BB-L	.	.
.	.	40a-	.
.	.	40cc	.
.	.	40ee-J	.
*v	*v	*	*
=39	=39	=39
12F	20bb-	.
.	20ee-	.
12A-J	.	.
.	20ccJJ	.
.	20aa-LL	.
12e-L	.	.
.	20bn	.
12a-J	20gg	.
.	20cc	.
12r	.	.
.	20a-JJ	.
.	20ffLL	.
12r	.	.
.	20g	.
4r	20ee-	.
.	20a-	.
.	20fJJ	.
.	20ccLL	.
.	20d	.
12r	20b-X	.
.	20e-	.
12r	.	.
.	20cJJ	.
.	20a-LL	.
12EnL	.	.
.	20d	.
=40	=40	=40
12F	20a-	.
.	20e-	.
12BB-J	.	.
.	20cJJ	.
.	20fLL	.
12GL	.	.
.	20c#X	.
12A-	20f	.
.	20d	.
12BB-J	.	.
.	20B-JJ	.
.	20a-LL	.
12EnL	.	.
.	20d	.
12F	20a-	.
.	20e-	.
12BB-J	.	.
.	20cnJJ	.
.	20fLL	.
12GL	.	.
.	20c#X	.
12A-	20f	.
.	20d	.
12FJ	.	.
.	20B-JJ	.
.	40a-LLL	.
12BB-L	.	.
.	40ccn	.
.	40ee-	.
.	40aa-J	.
=41	=41	=41
*^	*	*
4rEE	12F	20ddd	.
.	.	20aa-	.
.	12e-J	.	.
.	.	20ee-JJ	.
.	.	20cccLL	.
*clefG2	*	*	*
.	12a-L	.	.
.	.	20dd	.
4rc	12ccJ	20bb-	.
.	.	20ee-	.
.	12raa	.	.
.	.	20ccJJ	.
.	.	20aa-LL	.
.	12raa	.	.
.	.	20bn	.
*clefF4	*	*	*
4rEE	4rc	20gg	.
.	.	20cc	.
.	.	20a-JJ	.
.	.	20ffLL	.
.	.	20g	.
12rEE	12rc	20ee-	.
.	.	20a-	.
12rEE	12rc	.	.
.	.	20fJJ	.
.	.	20ccLL	.
12EnL	[12c	.	.
.	.	20g	.
=42	=42	=42	=42
12F	6c]	20cc	.
.	.	20a-	.
12BB-J	.	.	.
.	.	20e-JJ	.
.	.	20b-LL	.
12GL	[12d	.	.
.	.	20en	.
12A-	6d]	20b-	.
.	.	20f	.
12BB-J	.	.	.
.	.	20dJJ	.
.	.	20ccLL	.
12EnL	[12c	.	.
.	.	20g	.
12F	6c]	20cc	.
.	.	20a-	.
12BB-J	.	.	.
.	.	20e-XJJ	.
.	.	20ee-LL	.
12EL	[12c	.	.
.	.	20g	.
12F	6c]	20ee-	.
.	.	20a-	.
12BB-J	.	.	.
.	.	20e-JJ	.
.	.	40cLLL	.
12A-L	12rc	.	.
.	.	40e-	.
.	.	40a-	.
.	.	40ccJ	.
=43	=43	=43	=43
12BB-	1ryy	20gg	.
.	.	20cc	.
12EE-J	.	.	.
.	.	20a-JJ	.
.	.	20ee-LL	.
12FL 12c	.	.	.
.	.	20g	.
12BB-	.	20dd	.
.	.	20a-	.
12EE-J	.	.	.
.	.	20e-JJ	.
.	.	20ccLL	.
12A-L	.	.	.
.	.	20d	.
12BB-	.	20b-	.
.	.	20e-	.
12EE-J	.	.	.
.	.	20cJJ	.
.	.	20a-LL	.
12FL	.	.	.
.	.	20Bn	.
12BB-	.	20f	.
.	.	20c	.
12EE-J	.	.	.
.	.	20A-JJ	.
.	.	40e-LLL	.
12FL 12c	.	.	.
.	.	40a-	.
.	.	40cc	.
.	.	40ee-J	.
=44	=44	=44	=44
12BB-	4rc	20bb-	.
.	.	20ee-	.
12EE-J	.	.	.
.	.	20ccJJ	.
.	.	20ggLL	.
12A-L 12e-	.	.	.
.	.	20bn	.
12BB-	4rc	20ff	.
.	.	20cc	.
12EE-J	.	.	.
.	.	20a-JJ	.
.	.	20ee-LL	.
12FL 12c	.	.	.
.	.	20g	.
12BB-	4rc	20dd	.
.	.	20a-	.
12EE-J	.	.	.
.	.	20e-JJ	.
.	.	20ccLL	.
12FL	.	.	.
.	.	20d	.
12BB-	12rc	20a-	.
.	.	20e-	.
12EE-J	12rc	.	.
.	.	20cJJ	.
.	.	20ccLL	.
12F#XL	[12E-	.	.
.	.	20d	.
=45	=45	=45	=45
12G	6E-]	20b-	.
.	.	20e-	.
12EE-J	.	.	.
.	.	20d-XJJ	.
.	.	20ffLL	.
12cL	12rc	.	.
.	.	20an	.
12d-X	12rc	20ee-	.
.	.	20b-	.
12E-J	12rc	.	.
.	.	20gJJ	.
.	.	20dd-XLL	.
12GL	[12E-	.	.
.	.	20f	.
12A-	6E-]	20cc	.
.	.	20e-	.
12AA-J	.	.	.
.	.	20cJJ	.
.	.	20bb-XLL	.
12BnL	[12f	.	.
.	.	20ddn	.
12c	6f]	20aa-	.
.	.	20ee-	.
12FJ	.	.	.
.	.	20a-XJJ	.
.	.	20ggLL	.
12GL	[12e-	.	.
.	.	20bn	.
=46	=46	=46	=46
12A-	6e-]	20gg	.
.	.	20cc	.
12BB-J	.	.	.
.	.	20a-JJ	.
.	.	20ggLL	.
12GL	[12d	.	.
.	.	20b-X	.
12A-	6d]	20gg	.
.	.	20cc-X	.
12BB-J	.	.	.
.	.	20a-JJ	.
.	.	20ee-LL	.
12F#XL	[12e-	.	.
.	.	20an	.
12G	6e-]	20ee-	.
.	.	20b-	.
12E-J	.	.	.
.	.	20gJJ	.
.	.	20ee-LL	.
12rEE	12rc	.	.
.	.	20b-	.
6rEE	12rc	20g	.
.	.	20e-	.
.	12rc	.	.
.	.	20B-JJ	.
.	.	20ccnLL	.
12F#XL	[12E-	.	.
.	.	20d	.
=47	=47	=47	=47
12G	6E-]	20b-	.
.	.	20e-	.
12EE-J	.	.	.
.	.	20d-XJJ	.
.	.	20ffLL	.
12cL	12rc	.	.
.	.	20an	.
12d-X	12rc	20ee-	.
.	.	20b-	.
12E-J	12rc	.	.
.	.	20gJJ	.
.	.	20dd-XLL	.
12GL	[12E-	.	.
.	.	20f	.
12A-	6E-]	20cc	.
.	.	20e-	.
12AA-J	.	.	.
.	.	20cJJ	.
.	.	20bb-XLL	.
12BnL	[12f	.	.
.	.	20ddn	.
12c	6f]	20aa-	.
.	.	20ee-	.
12FJ	.	.	.
.	.	20a-XJJ	.
.	.	20ggLL	.
12GL	[12e-	.	.
.	.	20bn	.
=48	=48	=48	=48
12A-	6e-]	20gg	.
.	.	20cc	.
12BB-J	.	.	.
.	.	20a-JJ	.
.	.	20ggLL	.
12GL	[12d	.	.
.	.	20b-X	.
12A-	6d]	20gg	.
.	.	20cc-X	.
12BB-J	.	.	.
.	.	20a-JJ	.
.	.	20ee-LL	.
12F#XL	[12e-	.	.
.	.	20an	.
12G	6e-]	20ee-	.
.	.	20b-	.
12E-J	.	.	.
.	.	20gJJ	.
.	.	20ee-LL	.
12rEE	12rc	.	.
.	.	20b-	.
4rEE	12rc	20g	.
.	.	20e-	.
.	12rc	.	.
.	.	20B-JJ	.
.	.	20gLL	.
.	[12BBB- [12BB-	.	.
.	.	20Bn	.
*v	*v	*	*
=49	=49	=49
6BBB-] 6BB-]	20g	.
.	20c	.
.	20A-JJ	.
.	20gLL	.
[12BBB- [12BB-	.	.
.	20d-X	.
6BBB-] 6BB-]	20g	.
.	20dn	.
.	20A-JJ	.
.	20gLL	.
[12EE- [12BB- [12E-	.	.
.	20d	.
6EE-] 6BB-] 6E-]	20g	.
.	20e-	.
.	20GJJ	.
.	20gLL	.
[12CC-X [12C-X	.	.
.	20d	.
6CC-] 6C-]	20g	.
.	20e-	.
.	20AnJJ	.
.	20gLL	.
[12EE- [12E-	.	.
.	20d	.
=50	=50	=50
10.EE-] 10.E-]	20g	.
.	20e-	.
.	20B-JJ	.
10r	10r	.
10.r	10.r	.
[10EE- [10E-	20gLL	.
.	20d	.
10.EE-] 10.E-]	20g	.
.	20e-	.
.	20B-JJ	.
10r	10r	.
4r	4r	.
=51	=51	=51
4EE- 4BB- 4G	4e- 4b- 4ee-	.
4r	4r	.
2r	2r	.
==	==	==
*-	*-	*-
!!!system-decoration: {(*)}
!!!ENC: Bryan Jacob Bell
!!!END: November 2021 to April 2022
!!!PED: Konstantin Igumnov and Yakov Milstein
!!!PTL: A.N. Skryabin: Polnoe sobranie sochinenii dlia fortepiano (Muzgiz)
